X: 1
T: Country Lasses
B: Kerr's Third p.20
R: reel
Z: 2006 John Chambers <jc:trillian.mit.edu>
M: C|
L: 1/8
K: Bb
F \
|: "Bb"B2df     bfdf \
|  "Eb"gabg "Bb"fdBd \
|  "Eb"efge "Bb"defd \
|1 "C7"cdcB  "F"AFGA \
:|2"F7"cBcd "Bb"B3   |
|: f \
|  "Bb"b2ba     bfdf \
|      b2ba     bfdf \
|  "Eb"efge "Bb"defd \
|1 "C7"cdcB  "F"Acc  \
:|2"F7"cBcd "Bb"B3  |]
